X:1
T:Dance of the Brownies
T:Dance of the Brownies
T:By Effie F. Kamman(1868 -1933)
T:(CHARACTERISTIC DANCE)
T:by IMSLP - Pubblico dominio
T:by IMSLP - Pubblico dominio
C:By Effie E., Kamman.
Z:by IMSLP - Pubblico dominio
%%score { 1 | ( 2 3 4 ) }
L:1/8
Q:1/4=130
M:4/4
K:C
V:1 treble nm="Piano" snm="Pno."
V:2 bass 
V:3 bass 
V:4 bass 
V:1
"^Introduction." G2{/^f} g2 | G2{/^f} g2 |{/^f} g2 G2{/f} g2 G2 |{/^f} g2 x4 || %4
S[Q:1/4=120]"^Moderato.""^DANCE."[I:staff +1] (3E,F,^F, | %5
!mf![I:staff -1] z2[I:staff +1] [CE][I:staff -1] z !>!E4 | F6[I:staff +1] A,>_A, | %7
 (G,>^F,G,>B,[I:staff -1] E2 D2) |[I:staff +1] (E,>^D,E,>G, D2 C2) | %9
[I:staff -1] z2[I:staff +1] [CE][I:staff -1] z!<(! E4!<)! |!f! F6[I:staff +1] A,>_A, | %11
 G,>^F,G,>B,[I:staff -1] E2 D2 | C4- C2 || (3EF^F | !>!G2 [ce]2 !>!e2 [g^c']2 | %15
 f2 [ad']2 [ad']2 A>_A | (G>^FG>B) (e2 d2) | (E>^DE>G) (d2 c2) | G2 [ce]2 e2 [g^c']2 | %19
 f2 [ad']2 [ad']2 A>_A |!<(! G>^FG>B [Ge]2 [Fd]2 | [Ec]4!ff! [ec']2!<)!!fine! |] (3(ef^f) | %23
 g2 [ce]2 a2 [cf]2 | (g>e c>G) !>!A2 !>!G2 | g2 [ce]2 a2 [ce]2 | [Bfb]4- [Bfb]2 (3(bc'^c') | %27
 (d'>ba>b g2) (3(bc'^c') | (d'>ba>b g2) (3(bc'^c') | (d'>^c'd'>e' d'>=c'b>a) | %30
!<(! g4- g2 (3(ef^f)!<)! |!<(! g2 [ce]2!<)!!>(! a2 [cf]2!>)! | (g>ec>G) A2 G2 | g2 [ce]2 a2 [cf]2 | %34
 (g>ec>G A2 G2) | [cegc']2 [cegc']>[ceg] [cfa]2 [ceg]2 | [ce]2 [Ac]>[Ac] [FA]2 [EG]2 | %37
 [G,E]2 [G,E]>C D2 D>B, | C4- C2 || (3(cd^d) | !>!e2 [E^G]2 d2 [EG]2 | ([Ac]>E^D>E) (F>ED>E) | %42
 ([^Ge]>E^D>E) (F>ED>E) | ([Ac]>E^D>E) F>ED>E | !>!e2 [E^G]2 !>!d2 [EG]2 | ([Ac]>E^D>E) (F>ED>E) | %46
 [D^Ge]>^d e>f e>d c>B |!<(! [CEA]2 z2!<)!!f! [B,FG]2!D.S.! |] %48
V:2
{/^F,} G,2 G,,2 |{/^F,} G,2 G,,2 | [D,F,]4 [C,E,]4 | [B,,D,]2 G,,2 G,,,2 ||"^Gracefully." z2 | %5
 !>!G,4 [A,,,A,,]2[I:staff -1] [G^c][I:staff +1] z | %6
 z2[I:staff -1] [Ad][I:staff +1] z[I:staff -1] [Ad][I:staff +1] z z2 | [G,,,G,,]2 z2 G,2 F,2 | %8
 [C,,C,]2 z2 F,2 E,2 | !>!G,4 [A,,,A,,]2[I:staff -1] [G^c][I:staff +1] z | %10
 z2[I:staff -1] [Ad][I:staff +1] z[I:staff -1] [Ad][I:staff +1] z z2 | [G,,,G,,]2 z2 G,2 F,2 | %12
 C,2 G,,2 C,,2 || z2 | C,2 [G,CE]2 A,,2 [A,^CG]2 | D,2 [A,DF]2 [A,DF]2 z2 | %16
 B,,2 [G,B,=F]2 G,,2 [G,B,F]2 | C,2 [G,CE]2 E,2 [G,CE]2 | C,2 [G,CE]2 A,,2 [A,^CG]2 | %19
 D,2 [A,DF]2 [A,DF]2 z2 | G,,2 [G,B,=F]2 B,,2 [G,B,F]2 | C,2 [G,CE]2 [C,G,C]2 |] z2 | %23
 C,2 [CEG]2 C,2 [CFA]2 | C,2 [CEG]2 [CF]2 [CE]2 | C,2 [CEG]2 E,2 [CEG]2 | %26
 D,2 [G,B,F]2 [G,B,F]2 z2 | G,,2 [G,B,F]2 B,,2 [G,B,F]2 | G,,2 [G,B,F]2 B,,2 [G,B,F]2 | %29
 [D,,D,]2 [A,C^F]2 [D,,D,]2 [A,CF]2 | [G,,G,]2 [F,,F,]2 [E,,E,]2 [D,,D,]2 | C,2 [CEG]2 C,2 [CEG]2 | %32
 C,2 [CEG]2 [CF]2 [CE]2 | C,2 [CEG]2 C,2 [CFA]2 | C,2 [CEG]2 [CF]2 [CE]2 | %35
[K:treble] [CEG]2 [CEG]2 [CFA]2 [CEG]2 | E2 C2 A,2 G,2 |[K:bass] C,4 G,,4 | C,2 G,,2 C,,2 || z2 | %40
 E,,2 [E,^G,D]2 E,,2 [E,G,D]2 | (A,,2 [E,A,C]2) (E,,2 [E,A,C]2) | %42
 (B,,2 [E,^G,D]2) (E,,2 [E,G,D]2) | (A,,2 [E,A,C]2) (E,,2 [E,A,C]2) | %44
 (E,,2 [E,^G,D]2) (E,,2 [E,G,D]2) | (A,,2 [E,A,C]2) (E,,2 [E,A,C]2) | %46
 (E,,2 [E,^G,D]2) (^G,,2 [E,G,B,]2) | [A,,E,A,]2 z2 [G,,D,G,]2 |] %48
V:3
 x4 | x4 | x8 | x6 || x2 | [E,,C,]2 z2 z2 z2 | [D,,D,]2 [F,A,D]2 [F,A,D]2 x2 | x4 [B,,,B,,]2 z2 | %8
 x4 [G,,,G,,]2 z2 | [E,,C,]2 z2 z2 z2 | [D,,D,]2 [F,A,D]2 [F,A,D]2 x2 | x4 [B,,,B,,]2 z2 | x6 || %13
 x2 | x8 | x8 | x8 | x8 | x8 | x8 | x8 | x6 |] x2 | x8 | x8 | x8 | x8 | x8 | x8 | x8 | x8 | x8 | %32
 x8 | x8 | x8 |[K:treble] x8 | x8 |[K:bass] x4 F,2 F,3/2 x/ | x6 || x2 | x8 | x8 | x8 | x8 | x8 | %45
 x8 | x8 | x6 |] %48
V:4
 x4 | x4 | x8 | x6 || x2 | x8 | x8 | x8 | x8 | x8 | x8 | x8 | E,4- E,2 || x2 | x8 | x8 | x8 | x8 | %18
 x8 | x8 | x8 | x6 |] x2 | x8 | x8 | x8 | x8 | x8 | x8 | x8 | x8 | x8 | x8 | x8 | x8 | %35
[K:treble] x8 | x8 |[K:bass] x8 | E,4- E,2 || x2 | x8 | x8 | x8 | x8 | x8 | x8 | x8 | x6 |] %48

